resources/svg/contract.svg

<svg xmlns="http://www.w3.org/2000/svg" viewBox="0 0 15 15" fill="currentColor"><path d="M6.7964 11.8996L6.79897 11.9002C6.7972 11.8999 6.79638 11.8996 6.7964 11.8996Z" fill="black"/><path fill-rule="evenodd" clip-rule="evenodd" d="M1 1.5C1 0.671573 1.67157 0 2.5 0H10.7071L14 3.29289V13.5C14 14.3284 13.3284 15 12.5 15H2.5C1.67157 15 1 14.3284 1 13.5V1.5ZM7 4H4V5H7V4ZM11 7H4V8H11V7ZM6.3047 10.9078C5.90085 11.0163 5.58546 11.3247 5.47432 11.6581L4.52563 11.3419C4.74783 10.6753 5.33244 10.1336 6.04525 9.94209C6.75237 9.75212 7.55858 9.91125 8.25663 10.5534C8.46631 10.4917 8.67406 10.457 8.87948 10.446C9.41817 10.4171 9.90228 10.553 10.3173 10.7259C10.6221 10.8529 10.9176 11.0135 11.1661 11.1485C11.2454 11.1916 11.3201 11.2322 11.3886 11.2682C11.7119 11.4379 11.8898 11.5 12 11.5V12.5C11.6101 12.5 11.2255 12.312 10.9238 12.1536C10.8307 12.1047 10.7406 12.0558 10.6517 12.0075C10.4144 11.8786 10.1856 11.7544 9.93267 11.649C9.59767 11.5094 9.26929 11.4265 8.93298 11.4446C8.88409 11.4472 8.83418 11.452 8.78324 11.4593L8.78443 11.4726C8.81115 11.7974 8.67709 12.0645 8.50444 12.2563C8.18586 12.6103 7.66686 12.796 7.27692 12.8669C7.07379 12.9038 6.8553 12.9193 6.66293 12.8912C6.56876 12.8774 6.44734 12.8485 6.33295 12.7804C6.21132 12.708 6.06717 12.5695 6.03022 12.3478C5.99585 12.1416 6.07346 11.9716 6.14128 11.8671C6.21124 11.7593 6.30544 11.6661 6.40277 11.5856C6.59219 11.4287 6.86814 11.2591 7.23685 11.0726L7.26373 11.0531C6.91545 10.8496 6.58098 10.8336 6.3047 10.9078Z" fill="black"/></svg>

<svg xmlns="http://www.w3.org/2000/svg" viewBox="0 0 15 15" fill="currentColor"><path d="M6.796 11.9H6.8h-.003z" fill="currentColor"/><path fill-rule="evenodd" clip-rule="evenodd" d="M1 1.5A1.5 1.5 0 012.5 0h8.207L14 3.293V13.5a1.5 1.5 0 01-1.5 1.5h-10A1.5 1.5 0 011 13.5v-12zM7 4H4v1h3V4zm4 3H4v1h7V7zm-4.695 3.908c-.404.108-.72.417-.83.75l-.95-.316c.223-.667.807-1.208 1.52-1.4.707-.19 1.514-.03 2.212.611a2.75 2.75 0 01.622-.107c.54-.029 1.023.107 1.438.28.305.127.6.287.85.422.078.044.153.084.222.12.323.17.5.232.611.232v1c-.39 0-.774-.188-1.076-.346a21.802 21.802 0 01-.272-.146 7.689 7.689 0 00-.72-.359c-.334-.14-.663-.222-.999-.204a1.686 1.686 0 00-.15.014l.001.014c.027.324-.107.591-.28.783-.318.354-.837.54-1.227.61a1.962 1.962 0 01-.614.025.9.9 0 01-.33-.11.623.623 0 01-.303-.433.677.677 0 01.111-.48 1.28 1.28 0 01.262-.282c.19-.157.465-.327.834-.513l.027-.02a1.23 1.23 0 00-.96-.145z" fill="currentColor"/></svg>
